X: 6
T: The Galtee
R: reel
M: 4/4
L: 1/8
K: Ador
a2|:aged (3cdc AG|EA~A2 EA~A2|aged (3cdc AG|EG~G2 EG~G2|
aged (3cdc AG|Ag~g2 (3aba ga|(3bag ag (3efg dg|1 ecAG EAA2:|2 ecAG EAAB||
|:c2AB cded|cA~A2 dcAB|cA~A2 (3Bcd ed|cAAG EG~G2|
cA~A2 (3Bcd ed|cA~A2 a2 ga|(3bag ag (3efg dg|1 ecAG EAAB:|2 ecAG EA~A2||

